public/category/hover-1/sparkle-1.svg

<svg width="39" height="55" viewBox="0 0 39 55" fill="none" xmlns="http://www.w3.org/2000/svg">
<path d="M17.5065 2.29962C18.5917 7.13762 17.4186 12.0544 14.7313 16.1802C12.3866 19.8214 8.06681 23.8158 3.45097 24.0322C0.792984 24.1603 -0.0243499 27.6199 2.58783 28.6581C11.7854 32.3731 13.7217 44.4125 14.9884 53.016C15.335 55.4774 18.9888 55.4694 19.7045 53.2627C22.9368 43.3864 29.2735 34.9265 37.752 28.9496C39.3714 27.8155 38.3401 25.4651 36.8645 24.8521C29.0481 21.6586 23.5153 13.6807 23.2879 5.2252C23.2607 2.17232 18.5369 1.88995 18.5996 4.93511C18.7634 15.6799 25.4611 25.4197 35.4004 29.459C35.1071 28.105 34.8061 26.7154 34.5129 25.3615C25.3912 31.8134 18.5753 41.1604 15.09 51.763C16.6713 51.8308 18.2604 51.9343 19.8062 52.0098C18.2421 41.3445 15.2067 28.536 4.07508 24.1582C3.99184 25.6683 3.91632 27.214 3.83309 28.7241C9.63671 26.7583 14.5241 23.8346 17.8428 18.4904C20.9381 13.4929 22.027 7.32608 20.4638 1.65907C19.9479 -0.206176 17.0898 0.375589 17.5065 2.29962Z" fill="white"/>
</svg>

<svg width="39" height="55" fill="none" xmlns="http://www.w3.org/2000/svg"><path d="M17.506 2.3c1.086 4.838-.087 9.754-2.775 13.88-2.344 3.641-6.664 7.636-11.28 7.852-2.658.128-3.475 3.588-.863 4.626 9.197 3.715 11.134 15.755 12.4 24.358.347 2.461 4 2.453 4.716.247 3.233-9.877 9.57-18.337 18.048-24.313 1.62-1.134.588-3.485-.888-4.098-7.816-3.193-13.349-11.171-13.576-19.627-.027-3.053-4.751-3.335-4.688-.29.163 10.745 6.861 20.485 16.8 24.524l-.887-4.098c-9.122 6.452-15.938 15.8-19.423 26.402 1.581.068 3.17.171 4.716.247-1.564-10.666-4.6-23.474-15.73-27.852-.084 1.51-.16 3.056-.243 4.566 5.804-1.966 10.691-4.89 14.01-10.234 3.095-4.997 4.184-11.164 2.62-16.83-.515-1.866-3.373-1.284-2.957.64z" fill="#fff"/></svg>
